apps/symbolic/bijiben-symbolic.svg

<svg height="24" viewBox="0 0 24 24" width="24" xmlns="http://www.w3.org/2000/svg"><path d="m14 10h5.5l-5.5-5.5zm-9-7h10l6 6v10a2 2 0 0 1 -2 2h-14c-1.11 0-2-.9-2-2v-14c0-1.11.89-2 2-2m0 9v2h14v-2zm0 4v2h9v-2z" fill="#bebebe"/></svg>

<?xml version="1.0" encoding="UTF-8" standalone="no"?>
<svg
   xmlns:dc="http://purl.org/dc/elements/1.1/"
   xmlns:cc="http://creativecommons.org/ns#"
   xmlns:rdf="http://www.w3.org/1999/02/22-rdf-syntax-ns#"
   xmlns:svg="http://www.w3.org/2000/svg"
   xmlns="http://www.w3.org/2000/svg"
   xmlns:sodipodi="http://sodipodi.sourceforge.net/DTD/sodipodi-0.dtd"
   xmlns:inkscape="http://www.inkscape.org/namespaces/inkscape"
   version="1.1"
   width="24"
   height="24"
   viewBox="0 0 24 24"
   id="svg2"
   inkscape:version="0.91 r13725"
   sodipodi:docname="note-text.svg">
  <metadata
     id="metadata10">
    <rdf:RDF>
      <cc:Work
         rdf:about="">
        <dc:format>image/svg+xml</dc:format>
        <dc:type
           rdf:resource="http://purl.org/dc/dcmitype/StillImage" />
      </cc:Work>
    </rdf:RDF>
  </metadata>
  <defs
     id="defs8" />
  <sodipodi:namedview
     pagecolor="#ffffff"
     bordercolor="#666666"
     borderopacity="1"
     objecttolerance="10"
     gridtolerance="10"
     guidetolerance="10"
     inkscape:pageopacity="0"
     inkscape:pageshadow="2"
     inkscape:window-width="640"
     inkscape:window-height="480"
     id="namedview6"
     showgrid="false"
     inkscape:zoom="25.291667"
     inkscape:cx="5.0411862"
     inkscape:cy="12"
     inkscape:current-layer="svg2" />
  <path
     d="M14,10H19.5L14,4.5V10M5,3H15L21,9V19A2,2 0 0,1 19,21H5C3.89,21 3,20.1 3,19V5C3,3.89 3.89,3 5,3M5,12V14H19V12H5M5,16V18H14V16H5Z"
     id="path4"
     style="fill:#bebebe;fill-opacity:1" />
</svg>
